places/symbolic/folder-dropbox-symbolic.svg

<svg viewBox="0 0 16 16" xmlns="http://www.w3.org/2000/svg">
  <path d="m4.7115905 12.002484 3.2884198-2.8013798-4.749982-2.9980362-3.2500283 2.663853zm3.2884198-2.8016265 3.2980637 2.8015035 4.701926-3.1355634-3.249915-2.6637296zm0 .6096175-3.2884198 2.791489-1.4135265-.943564v1.061432l4.7019463 2.880168 4.7308167-2.880168v-1.061432l-1.413629.943564zm-8.0000103-6.2613484 3.2500283 2.6539414 4.749982-2.988135-3.2884198-2.80137978zm11.298074-3.13557338-3.2980637 2.80137978 4.7500747 2.988135 3.249915-2.6539414z" fill="#bebebe" />
</svg>

<?xml version="1.0" encoding="UTF-8" standalone="no"?>
<svg
   xmlns:dc="http://purl.org/dc/elements/1.1/"
   xmlns:cc="http://creativecommons.org/ns#"
   xmlns:rdf="http://www.w3.org/1999/02/22-rdf-syntax-ns#"
   xmlns:svg="http://www.w3.org/2000/svg"
   xmlns="http://www.w3.org/2000/svg"
   xmlns:sodipodi="http://sodipodi.sourceforge.net/DTD/sodipodi-0.dtd"
   xmlns:inkscape="http://www.inkscape.org/namespaces/inkscape"
   viewBox="0 0 16 16"
   version="1.1"
   id="svg6"
   sodipodi:docname="folder-dropbox-symbolic.svg"
   inkscape:version="0.92.4 (5da689c313, 2019-01-14)">
  <metadata
     id="metadata10">
    <rdf:RDF>
      <cc:Work
         rdf:about="">
        <dc:format>image/svg+xml</dc:format>
        <dc:type
           rdf:resource="http://purl.org/dc/dcmitype/StillImage" />
      </cc:Work>
    </rdf:RDF>
  </metadata>
  <sodipodi:namedview
     pagecolor="#ffffff"
     bordercolor="#666666"
     borderopacity="1"
     objecttolerance="10"
     gridtolerance="10"
     guidetolerance="10"
     inkscape:pageopacity="0"
     inkscape:pageshadow="2"
     inkscape:window-width="772"
     inkscape:window-height="480"
     id="namedview8"
     showgrid="false"
     inkscape:zoom="14.75"
     inkscape:cx="8"
     inkscape:cy="8"
     inkscape:window-x="0"
     inkscape:window-y="32"
     inkscape:window-maximized="0"
     inkscape:current-layer="svg6" />
  <defs
     id="defs3051">
    <style
       type="text/css"
       id="current-color-scheme">
      .ColorScheme-Text {
        color:#4d4d4d;
      }
      </style>
  </defs>
  <path
     style="fill:#bebebe;fill-opacity:1;stroke:none"
     class="ColorScheme-Text"
     d="M 4.7115905,12.002484 8.0000103,9.2011042 3.2500283,6.203068 0,8.866921 4.7115905,12.002484 Z M 8.0000103,9.2008575 11.298074,12.002361 16,8.8667976 12.750085,6.203068 8.0000103,9.2008575 Z m 0,0.6096175 -3.2884198,2.791489 -1.4135265,-0.943564 0,1.061432 4.7019463,2.880168 4.7308167,-2.880168 0,-1.061432 -1.413629,0.943564 L 8.0000103,9.810475 Z M 0,3.5491266 3.2500283,6.203068 8.0000103,3.214933 4.7115905,0.41355322 0,3.5491266 Z M 11.298074,0.41355322 8.0000103,3.214933 12.750085,6.203068 16,3.5491266 11.298074,0.41355322 Z"
     id="path4" />
</svg>
